content/_snippets/hardware/led/image.svg

<svg width="77" height="220" viewBox="0 0 77 220" fill="none" xmlns="http://www.w3.org/2000/svg">
<path d="M8.73413 217.262V146.888V139.43V128.778C8.73413 123.255 12.4536 118.425 17.793 117.014V117.014C23.1324 115.603 26.8518 110.773 26.8518 105.25V86.9468" stroke="#95A5A6" stroke-width="5.2" stroke-linecap="round"/>
<path d="M55.76 82.62L55.76 217.2C55.76 218.63 54.61 219.78 53.18 219.78C51.76 219.78 50.6 218.63 50.6 217.2L50.6 82.62L55.76 82.62Z" fill="#95A5A6"/>
<path d="M50.59 75.99L50.59 62.66C50.59 62.58 50.59 62.48 50.62 62.4L50.62 51.76L46.55 51.76L32.08 33.4601L49.85 33.4601L55.74 39.28L55.74 62.54C55.75 62.58 55.75 62.62 55.75 62.66L55.75 75.99L50.59 75.99V75.99Z" fill="#BDC7C7"/>
<path d="M29.04 51.76L29.04 62.66L29 62.66L29 75.99L23.85 75.99L23.85 62.66L23.83 62.66L23.83 32.4301L29.78 32.4301L28.19 34.28L41.96 51.76L29.04 51.76Z" fill="#BDC7C7"/>
<path d="M8.28998 28.4301L8.28998 75.99L68.45 75.99L68.45 28.4301C68.45 27.6501 68.41 26.87 68.34 26.12C67.18 11.49 54.95 -2.03957e-06 40.01 -1.38653e-06C39.46 -1.36248e-06 38.9 0.0200377 38.36 0.0400377C37.82 0.0100378 37.28 -1.26719e-06 36.72 -1.24272e-06C21.81 -5.90978e-07 9.56998 11.5 8.40998 26.12C8.32998 26.87 8.28998 27.6501 8.28998 28.4301Z" fill="#DA5B4A"/>
<path d="M0.669922 82.9199C0.669922 81.2631 2.01307 79.9199 3.66992 79.9199H68.6699V89.9199H3.66992C2.01307 89.9199 0.669922 88.5768 0.669922 86.9199V82.9199Z" fill="#DA5B4A"/>
<path d="M36 8.90002C27.83 8.90002 21.21 15.5201 21.21 23.6901" stroke="white" stroke-width="7.4302" stroke-miterlimit="10"/>
</svg>

<svg xmlns="http://www.w3.org/2000/svg" width="77" height="220" fill="none" viewBox="0 0 77 220"><path stroke="#95a5a6" stroke-linecap="round" stroke-width="5.2" d="M8.734 217.262v-88.484c0-5.523 3.72-10.353 9.059-11.764v0a12.17 12.17 0 0 0 9.059-11.764V86.947"/><path fill="#95a5a6" d="M55.76 82.62V217.2c0 1.43-1.15 2.58-2.58 2.58a2.58 2.58 0 0 1-2.58-2.58V82.62z"/><path fill="#bdc7c7" d="M50.59 75.99V62.66c0-.08 0-.18.03-.26V51.76h-4.07l-14.47-18.3h17.77l5.89 5.82v23.26c.01.04.01.08.01.12v13.33z"/><path fill="#bdc7c7" d="M29.04 51.76v10.9H29v13.33h-5.15V62.66h-.02V32.43h5.95l-1.59 1.85 13.77 17.48z"/><path fill="#da5b4a" d="M8.29 28.43v47.56h60.16V28.43a25 25 0 0 0-.11-2.31C67.18 11.49 54.95 0 40.01 0c-.55 0-1.11.02-1.65.04C37.82.01 37.28 0 36.72 0 21.81 0 9.57 11.5 8.41 26.12c-.08.75-.12 1.53-.12 2.31M.67 82.92a3 3 0 0 1 3-3h65v10h-65a3 3 0 0 1-3-3z"/><path stroke="#fff" stroke-miterlimit="10" stroke-width="7.43" d="M36 8.9c-8.17 0-14.79 6.62-14.79 14.79"/></svg>
